assets/svg/solid/turkish-lira-sign.svg

<svg xmlns="http://www.w3.org/2000/svg" viewBox="0 0 384 512"><!--! Font Awesome Free 6.1.2 by @fontawesome - https://fontawesome.com License - https://fontawesome.com/license/free (Icons: CC BY 4.0, Fonts: SIL OFL 1.1, Code: MIT License) Copyright 2022 Fonticons, Inc. --><path d="M96 32C113.7 32 128 46.33 128 64V99.29L247.2 65.23C264.2 60.38 281.9 70.22 286.8 87.21C291.6 104.2 281.8 121.9 264.8 126.8L128 165.9V195.3L247.2 161.2C264.2 156.4 281.9 166.2 286.8 183.2C291.6 200.2 281.8 217.9 264.8 222.8L128 261.9V416H191.8C260 416 316.2 362.5 319.6 294.4L320 286.4C320.9 268.8 335.9 255.2 353.6 256C371.2 256.9 384.8 271.9 383.1 289.6L383.6 297.6C378.5 399.8 294.1 480 191.8 480H96C78.33 480 64 465.7 64 448V280.1L40.79 286.8C23.8 291.6 6.087 281.8 1.232 264.8C-3.623 247.8 6.217 230.1 23.21 225.2L64 213.6V184.1L40.79 190.8C23.8 195.6 6.087 185.8 1.232 168.8C-3.623 151.8 6.216 134.1 23.21 129.2L64 117.6V64C64 46.33 78.33 32 96 32L96 32z"/></svg>

<svg xmlns="http://www.w3.org/2000/svg" viewBox="0 0 384 512"><!--! Font Awesome Free 6.5.0 by @fontawesome - https://fontawesome.com License - https://fontawesome.com/license/free (Icons: CC BY 4.0, Fonts: SIL OFL 1.1, Code: MIT License) Copyright 2023 Fonticons, Inc. --><path d="M96 32c17.7 0 32 14.3 32 32V99.3L247.2 65.2c17-4.9 34.7 5 39.6 22s-5 34.7-22 39.6L128 165.9v29.4l119.2-34.1c17-4.9 34.7 5 39.6 22s-5 34.7-22 39.6L128 261.9V416h63.8c68.2 0 124.4-53.5 127.8-121.6l.4-8c.9-17.7 15.9-31.2 33.6-30.4s31.2 15.9 30.4 33.6l-.4 8C378.5 399.8 294.1 480 191.8 480H96c-17.7 0-32-14.3-32-32V280.1l-23.2 6.6c-17 4.9-34.7-5-39.6-22s5-34.7 22-39.6L64 213.6V184.1l-23.2 6.6c-17 4.9-34.7-5-39.6-22s5-34.7 22-39.6L64 117.6V64c0-17.7 14.3-32 32-32z"/></svg>
